img/svg/whatsapp.svg

<svg width="50" height="50" viewBox="0 0 50 50" xmlns="http://www.w3.org/2000/svg">
<g clip-path="url(#clip0_120_4)">
<path fill-rule="evenodd" clip-rule="evenodd" d="M36.2813 29.9626C35.6604 29.6522 32.6167 28.1563 32.05 27.948C31.4833 27.7418 31.0708 27.6397 30.6562 28.2605C30.2437 28.8772 29.0583 30.273 28.6979 30.6855C28.3354 31.1001 27.975 31.1501 27.3562 30.8418C26.7375 30.5293 24.7417 29.8772 22.3771 27.7688C20.5375 26.1272 19.2937 24.1001 18.9333 23.4793C18.5729 22.8605 18.8938 22.5251 19.2042 22.2168C19.4833 21.9397 19.8229 21.4938 20.1333 21.1334C20.4437 20.7709 20.5458 20.5126 20.7521 20.098C20.9604 19.6855 20.8562 19.3251 20.7 19.0147C20.5458 18.7043 19.3083 15.6563 18.7917 14.4168C18.2896 13.2105 17.7792 13.3751 17.4 13.3543C17.0375 13.3376 16.625 13.3334 16.2125 13.3334C15.8 13.3334 15.1292 13.4876 14.5625 14.1084C13.9937 14.7272 12.3958 16.2251 12.3958 19.273C12.3958 22.3188 14.6125 25.2626 14.9229 25.6772C15.2333 26.0897 19.2875 32.3438 25.4979 35.0251C26.9771 35.6626 28.1292 36.0438 29.0271 36.3272C30.5104 36.8001 31.8604 36.7334 32.9271 36.573C34.1146 36.3959 36.5896 35.0751 37.1063 33.6292C37.6208 32.1834 37.6208 30.9438 37.4667 30.6855C37.3125 30.4272 36.9 30.273 36.2792 29.9626H36.2813ZM24.9854 45.3855H24.9771C21.2884 45.3862 17.6674 44.3946 14.4937 42.5147L13.7437 42.0688L5.94792 44.1147L8.02917 36.5147L7.53958 35.7355C5.47737 32.4529 4.38603 28.6538 4.39167 24.7772C4.39583 13.423 13.6333 4.1855 24.9937 4.1855C30.4937 4.1855 35.6646 6.33134 39.5521 10.223C41.4695 12.1325 42.9893 14.4033 44.0235 16.904C45.0577 19.4047 45.5857 22.0857 45.5771 24.7918C45.5729 36.1459 36.3354 45.3855 24.9854 45.3855V45.3855ZM42.5104 7.26675C40.215 4.95618 37.4838 3.12412 34.4752 1.87675C31.4666 0.629385 28.2403 -0.00849218 24.9833 8.53699e-05C11.3292 8.53699e-05 0.2125 11.1147 0.208333 24.7751C0.20625 29.1418 1.34583 33.4042 3.51458 37.1605L0 50.0001L13.1333 46.5542C16.7664 48.5337 20.8377 49.5708 24.975 49.5709H24.9854C38.6396 49.5709 49.7562 38.4563 49.7604 24.7938C49.7705 21.5382 49.1349 18.3128 47.8905 15.3043C46.646 12.2958 44.8174 9.56398 42.5104 7.26675" fill="black"/>
</g>
<defs>
<clipPath id="clip0_120_4">
<rect width="50" height="50" fill="white"/>
</clipPath>
</defs>
</svg>

<svg width="50" height="50" xmlns="http://www.w3.org/2000/svg"><g clip-path="url(#clip0_120_4)"><path fill-rule="evenodd" clip-rule="evenodd" d="M36.281 29.963c-.62-.31-3.664-1.807-4.231-2.015-.567-.206-.98-.308-1.394.313-.412.616-1.598 2.012-1.958 2.425-.363.414-.723.464-1.342.156-.619-.313-2.614-.965-4.979-3.073-1.84-1.642-3.083-3.669-3.444-4.29-.36-.619-.04-.954.271-1.262.28-.277.619-.723.93-1.084.31-.362.412-.62.618-1.035.208-.412.104-.773-.052-1.083-.154-.31-1.392-3.359-1.908-4.598-.502-1.207-1.013-1.042-1.392-1.063-.362-.016-.775-.02-1.188-.02-.412 0-1.083.154-1.65.774-.568.62-2.166 2.117-2.166 5.165 0 3.046 2.216 5.99 2.527 6.404.31.413 4.365 6.667 10.575 9.348a35.394 35.394 0 003.53 1.302c1.482.473 2.832.406 3.9.246 1.187-.177 3.662-1.498 4.178-2.944.515-1.446.515-2.685.36-2.943-.154-.259-.566-.413-1.187-.723h.002zM24.985 45.385h-.008c-3.689.001-7.31-.99-10.483-2.87l-.75-.446-7.796 2.046 2.081-7.6-.49-.78a20.544 20.544 0 01-3.147-10.958c.004-11.354 9.241-20.591 20.602-20.591 5.5 0 10.67 2.145 14.558 6.037a20.47 20.47 0 016.025 14.569c-.004 11.354-9.242 20.593-20.592 20.593zM42.51 7.267A24.615 24.615 0 0024.983 0C11.33 0 .213 11.115.208 24.775a24.716 24.716 0 003.307 12.386L0 50l13.133-3.447a24.752 24.752 0 0011.842 3.017h.01c13.655 0 24.771-11.115 24.775-24.777a24.628 24.628 0 00-7.25-17.527"/></g><defs><clipPath id="clip0_120_4"><path fill="#fff" d="M0 0h50v50H0z"/></clipPath></defs></svg>
